tools/download-figma-icons/icons/solid/tipi.svg

<svg width="24" height="24" viewBox="0 0 24 24" fill="none" xmlns="http://www.w3.org/2000/svg">
<path fill-rule="evenodd" clip-rule="evenodd" d="M11.3327 16.9127C11.5877 16.4102 12.4119 16.4102 12.6669 16.9127L15.4651 22.4994H8.54197L11.3327 16.9127ZM9.75019 13.5003C10.1619 13.5003 10.5002 13.8371 10.5002 14.2503C10.5002 14.6628 10.1619 14.9996 9.75019 14.9996C9.3377 14.9996 9.00021 14.6628 9.00021 14.2503C9.00021 13.8371 9.3377 13.5003 9.75019 13.5003ZM12.0001 13.5003C12.4119 13.5003 12.7501 13.8371 12.7501 14.2503C12.7501 14.6628 12.4119 14.9996 12.0001 14.9996C11.5877 14.9996 11.2502 14.6628 11.2502 14.2503C11.2502 13.8371 11.5877 13.5003 12.0001 13.5003ZM14.2501 13.5003C14.6618 13.5003 15.0001 13.8371 15.0001 14.2503C15.0001 14.6628 14.6618 14.9996 14.2501 14.9996C13.8376 14.9996 13.5001 14.6628 13.5001 14.2503C13.5001 13.8371 13.8376 13.5003 14.2501 13.5003ZM23.25 22.4994H21.4793L12.8245 3.96802L14.1827 1.06558C14.3544 0.690586 14.1902 0.248095 13.8152 0.068099C13.4402 -0.103648 12.9977 0.0605991 12.817 0.435591L12.0002 2.19056L11.1828 0.435591C11.0028 0.0605991 10.5603 -0.103648 10.1853 0.068099C9.81029 0.248095 9.64529 0.690586 9.81704 1.06558L11.1753 3.96802L2.52044 22.4994H0.750473C0.337981 22.4994 0.000488271 22.8369 0.000488271 23.2494C0.000488271 23.6619 0.337981 23.9994 0.750473 23.9994H9.00031H15.0002H23.25C23.6618 23.9994 24 23.6619 24 23.2494C24 22.8369 23.6618 22.4994 23.25 22.4994Z" fill="black"/>
</svg>

<svg xmlns="http://www.w3.org/2000/svg" width="24" height="24" fill="none" viewBox="0 0 24 24"><path fill="currentColor" fill-rule="evenodd" d="M11.333 16.913c.255-.503 1.079-.503 1.334 0l2.798 5.586H8.542zM9.75 13.5c.412 0 .75.337.75.75s-.338.75-.75.75a.75.75 0 0 1-.75-.75c0-.413.338-.75.75-.75m2.25 0c.412 0 .75.337.75.75s-.338.75-.75.75a.75.75 0 0 1-.75-.75c0-.413.338-.75.75-.75m2.25 0c.412 0 .75.337.75.75s-.338.75-.75.75a.75.75 0 0 1-.75-.75c0-.413.338-.75.75-.75m9 9h-1.77L12.824 3.967l1.358-2.902a.76.76 0 0 0-.368-.998.76.76 0 0 0-.998.368L12 2.19 11.183.436a.76.76 0 0 0-.998-.368.76.76 0 0 0-.368.998l1.358 2.902L2.52 22.499H.75a.75.75 0 0 0-.75.75c0 .413.338.75.75.75h22.5c.412 0 .75-.337.75-.75a.753.753 0 0 0-.75-.75" clip-rule="evenodd"/></svg>
